src/img/slider-arrow-prev.svg

<svg width="71" height="71" viewBox="0 0 71 71" fill="none" xmlns="http://www.w3.org/2000/svg">
<g id="Group 277131316">
<g id="Group 277131282">
<g id="Rectangle 137" filter="url(#filter0_i_540_1026)">
<rect width="70.546" height="70.546" rx="35.273" transform="matrix(-1 0 0 1 70.546 0)" fill="#E95229"/>
</g>
</g>
<path id="Arrow 1" d="M23.4859 35.5157C22.9977 35.0276 22.9977 34.2361 23.4859 33.748L31.4409 25.793C31.929 25.3048 32.7205 25.3048 33.2086 25.793C33.6968 26.2812 33.6968 27.0726 33.2086 27.5608L26.1376 34.6318L33.2086 41.7029C33.6968 42.1911 33.6968 42.9825 33.2086 43.4707C32.7205 43.9588 31.929 43.9588 31.4409 43.4707L23.4859 35.5157ZM46.1749 35.8818H24.3698V33.3818H46.1749V35.8818Z" fill="white"/>
</g>
<defs>
<filter id="filter0_i_540_1026" x="0" y="0" width="70.546" height="70.5459" filterUnits="userSpaceOnUse" color-interpolation-filters="sRGB">
<feFlood flood-opacity="0" result="BackgroundImageFix"/>
<feBlend mode="normal" in="SourceGraphic" in2="BackgroundImageFix" result="shape"/>
<feColorMatrix in="SourceAlpha" type="matrix" values="0 0 0 0 0 0 0 0 0 0 0 0 0 0 0 0 0 0 127 0" result="hardAlpha"/>
<feOffset/>
<feGaussianBlur stdDeviation="15"/>
<feComposite in2="hardAlpha" operator="arithmetic" k2="-1" k3="1"/>
<feColorMatrix type="matrix" values="0 0 0 0 1 0 0 0 0 1 0 0 0 0 1 0 0 0 0.4 0"/>
<feBlend mode="normal" in2="shape" result="effect1_innerShadow_540_1026"/>
</filter>
</defs>
</svg>

<svg width="71" height="71" fill="none" xmlns="http://www.w3.org/2000/svg"><g id="Group 277131316"><g id="Group 277131282"><g id="Rectangle 137" filter="url(#filter0_i_540_1026)"><rect width="70.546" height="70.546" rx="35.273" transform="matrix(-1 0 0 1 70.546 0)" fill="#E95229"/></g></g><path id="Arrow 1" d="M23.486 35.516a1.25 1.25 0 010-1.768l7.955-7.955a1.25 1.25 0 111.768 1.768l-7.071 7.07 7.07 7.072a1.25 1.25 0 11-1.767 1.768l-7.955-7.955zm22.689.366H24.37v-2.5h21.805v2.5z" fill="#fff"/></g><defs><filter id="filter0_i_540_1026" x="0" y="0" width="70.546" height="70.546" filterUnits="userSpaceOnUse" color-interpolation-filters="sRGB"><feFlood flood-opacity="0" result="BackgroundImageFix"/><feBlend in="SourceGraphic" in2="BackgroundImageFix" result="shape"/><feColorMatrix in="SourceAlpha" values="0 0 0 0 0 0 0 0 0 0 0 0 0 0 0 0 0 0 127 0" result="hardAlpha"/><feOffset/><feGaussianBlur stdDeviation="15"/><feComposite in2="hardAlpha" operator="arithmetic" k2="-1" k3="1"/><feColorMatrix values="0 0 0 0 1 0 0 0 0 1 0 0 0 0 1 0 0 0 0.4 0"/><feBlend in2="shape" result="effect1_innerShadow_540_1026"/></filter></defs></svg>
